assets/Goal net/Flat/goal_net_flat.svg

<svg width="32" height="32" viewBox="0 0 32 32" fill="none" xmlns="http://www.w3.org/2000/svg">
<path d="M9.1352 26.5L3.25196 29.9319C3.01343 30.071 2.70727 29.9905 2.56813 29.7519C2.42899 29.5134 2.50956 29.2073 2.74808 29.0681L8.50002 25.7128V21.8705L3.25196 24.9319C3.01343 25.071 2.70727 24.9905 2.56813 24.7519C2.42899 24.5134 2.50956 24.2073 2.74808 24.0681L8.50002 20.7128V16.8705L3.25196 19.9319C3.01343 20.071 2.70727 19.9905 2.56813 19.7519C2.42899 19.5134 2.50956 19.2073 2.74808 19.0681L8.50002 15.7128V11H9.50002V15.5H15.5V11H16.5V15.5H22.5V11H23.5V15.7128L29.252 19.0681C29.4905 19.2073 29.5711 19.5134 29.4319 19.7519C29.2928 19.9905 28.9866 20.071 28.7481 19.9319L23.5 16.8705V20.7128L29.252 24.0681C29.4905 24.2073 29.5711 24.5134 29.4319 24.7519C29.2928 24.9905 28.9866 25.071 28.7481 24.9319L23.5 21.8705V25.7128L29.252 29.0681C29.4905 29.2073 29.5711 29.5134 29.4319 29.7519C29.2928 29.9905 28.9866 30.071 28.7481 29.9319L22.8648 26.5H9.1352ZM22.5 25.5V21.5H16.5V25.5H22.5ZM22.5 20.5V16.5H16.5V20.5H22.5ZM9.50002 16.5V20.5H15.5V16.5H9.50002ZM9.50002 21.5V25.5H15.5V21.5H9.50002Z" fill="#9B9B9B"/>
<path d="M5.08124 12.6887C4.46852 13.1264 4 13.8236 4 15V29.5C4 29.7761 3.77614 30 3.5 30H2.5C2.22386 30 2 29.7761 2 29.5V15C2 13.1764 2.78148 11.8736 3.91876 11.0613C5.00991 10.2819 6.35719 10 7.5 10H24.5C25.6428 10 26.9901 10.2819 28.0812 11.0613C29.2185 11.8736 30 13.1764 30 15V29.5C30 29.7761 29.7761 30 29.5 30H28.5C28.2239 30 28 29.7761 28 29.5V15C28 13.8236 27.5315 13.1264 26.9188 12.6887C26.2599 12.2181 25.3572 12 24.5 12H7.5C6.64281 12 5.74009 12.2181 5.08124 12.6887Z" fill="#F8312F"/>
</svg>

<svg xmlns="http://www.w3.org/2000/svg" width="32" height="32" fill="none"><path fill="#9B9B9B" d="m9.135 26.5-5.883 3.432a.5.5 0 0 1-.504-.864L8.5 25.713V21.87l-5.248 3.062a.5.5 0 0 1-.504-.864L8.5 20.713V16.87l-5.248 3.062a.5.5 0 0 1-.504-.864L8.5 15.713V11h1v4.5h6V11h1v4.5h6V11h1v4.713l5.752 3.355a.5.5 0 1 1-.504.864L23.5 16.87v3.842l5.752 3.355a.5.5 0 1 1-.504.864L23.5 21.87v3.842l5.752 3.355a.5.5 0 1 1-.504.864L22.865 26.5H9.135Zm13.365-1v-4h-6v4h6Zm0-5v-4h-6v4h6Zm-13-4v4h6v-4h-6Zm0 5v4h6v-4h-6Z"/><path fill="#F8312F" d="M5.081 12.689C4.47 13.126 4 13.824 4 15v14.5a.5.5 0 0 1-.5.5h-1a.5.5 0 0 1-.5-.5V15c0-1.824.781-3.126 1.919-3.939C5.009 10.281 6.357 10 7.5 10h17c1.143 0 2.49.282 3.581 1.061C29.218 11.874 30 13.176 30 15v14.5a.5.5 0 0 1-.5.5h-1a.5.5 0 0 1-.5-.5V15c0-1.176-.468-1.874-1.081-2.311-.66-.47-1.562-.689-2.419-.689h-17c-.857 0-1.76.218-2.419.689Z"/></svg>
